src/img/logo.svg

<svg xmlns="http://www.w3.org/2000/svg" width="300" height="300" viewBox="0 0 300 300"><defs/><g fill="none" fill-rule="evenodd"><circle cx="150" cy="150" r="150" fill="#6332F6"/><path fill="#FFF" fill-rule="nonzero" d="M190.2 200.9c0-5.400027-1.049989-10.04998-3.15-13.95-2.10001-3.900019-4.949982-7.399984-8.55-10.5-3.600018-3.100015-7.899975-5.899987-12.9-8.4s-10.399971-5.149986-16.2-7.95c-6.800034-3.200016-13.649965-6.599982-20.55-10.2-6.900034-3.600018-13.099972-7.799976-18.6-12.6-5.500028-4.800024-9.949983-10.349968-13.35-16.65-3.400017-6.300031-5.1-13.649958-5.1-22.05 0-7.000035 1.299987-13.9499655 3.9-20.85 2.600013-6.9000345 6.399975-13.049973 11.4-18.45s11.249963-9.799983 18.75-13.2c7.500037-3.400017 16.24995-5.1 26.25-5.1 7.400037 0 14.249968.9499905 20.55 2.85 6.300032 1.9000095 11.949975 4.349985 16.95 7.35 5.000025 3.000015 9.399981 6.299982 13.2 9.9 3.800019 3.600018 6.899988 7.099983 9.3 10.5l-18.9 15.3c-1.800009-2.600013-4.049986-5.199987-6.75-7.8-2.700014-2.600013-5.799983-4.9499895-9.3-7.05-3.500017-2.1000105-7.349979-3.7999935-11.55-5.1-4.200021-1.3000065-8.699976-1.95-13.5-1.95-5.800029 0-10.849978.899991-15.15 2.7-4.300021 1.8-7.949985 4.199985-10.95 7.2-3.000015 3.000015-5.249993 6.4499805-6.75 10.35S117 93.09998 117 97.1c0 5.000025 1.099989 9.349982 3.3 13.05 2.200011 3.700019 5.29998 7.149984 9.3 10.35 4.00002 3.200016 8.899971 6.299985 14.7 9.3 5.800029 3.000015 12.299964 6.099984 19.5 9.3 8.00004 3.600018 15.249967 7.349981 21.75 11.25 6.500032 3.90002 11.999978 8.149977 16.5 12.75 4.500023 4.600023 7.949988 9.799971 10.35 15.6 2.400012 5.800029 3.6 12.599961 3.6 20.4 0 9.200046-1.649984 17.449963-4.95 24.75-3.300017 7.300037-7.849971 13.499975-13.65 18.6-5.800029 5.100026-12.64996 8.999987-20.55 11.7-7.900039 2.700014-16.349955 4.05-25.35 4.05s-17.099964-1.249987-24.3-3.75c-7.200036-2.500012-13.599972-5.79998-19.2-9.9-5.600028-4.10002-10.39998-8.799974-14.4-14.1-4.00002-5.300027-7.199988-10.649973-9.6-16.05l21-12.6c1.800009 4.200021 4.149985 8.249981 7.05 12.15 2.900014 3.90002 6.249981 7.349985 10.05 10.35 3.800019 3.000015 8.149976 5.399991 13.05 7.2 4.900025 1.800009 10.249971 2.7 16.05 2.7 5.000025 0 9.849977-.7 14.55-2.1 4.700023-1.400007 8.849982-3.499986 12.45-6.3 3.600018-2.800014 6.499989-6.249979 8.7-10.35 2.200011-4.10002 3.3-8.949972 3.3-14.55z"/></g></svg>

<svg xmlns="http://www.w3.org/2000/svg" width="300" height="300" viewBox="0 0 300 300">
  <g fill="none" fill-rule="evenodd">
    <circle cx="150" cy="150" r="150" fill="#6332F6"/>
    <path fill="#FFF" fill-rule="nonzero" d="M190.2,200.9 C190.2,195.499973 189.150011,190.85002 187.05,186.95 C184.94999,183.049981 182.100018,179.550016 178.5,176.45 C174.899982,173.349985 170.600025,170.550013 165.6,168.05 C160.599975,165.549987 155.200029,162.900014 149.4,160.1 C142.599966,156.899984 135.750035,153.500018 128.85,149.9 C121.949966,146.299982 115.750028,142.100024 110.25,137.3 C104.749972,132.499976 100.300017,126.950032 96.9,120.65 C93.499983,114.349969 91.8,107.000042 91.8,98.6 C91.8,91.599965 93.099987,84.6500345 95.7,77.75 C98.300013,70.8499655 102.099975,64.700027 107.1,59.3 C112.100025,53.899973 118.349963,49.500017 125.85,46.1 C133.350037,42.699983 142.09995,41 152.1,41 C159.500037,41 166.349968,41.9499905 172.65,43.85 C178.950032,45.7500095 184.599975,48.199985 189.6,51.2 C194.600025,54.200015 198.999981,57.499982 202.8,61.1 C206.600019,64.700018 209.699988,68.199983 212.1,71.6 L193.2,86.9 C191.399991,84.299987 189.150014,81.700013 186.45,79.1 C183.749986,76.499987 180.650017,74.1500105 177.15,72.05 C173.649983,69.9499895 169.800021,68.2500065 165.6,66.95 C161.399979,65.6499935 156.900024,65 152.1,65 C146.299971,65 141.250022,65.899991 136.95,67.7 C132.649979,69.5 129.000015,71.899985 126,74.9 C122.999985,77.900015 120.750007,81.3499805 119.25,85.25 C117.749993,89.1500195 117,93.09998 117,97.1 C117,102.100025 118.099989,106.449982 120.3,110.15 C122.500011,113.850019 125.59998,117.299984 129.6,120.5 C133.60002,123.700016 138.499971,126.799985 144.3,129.8 C150.100029,132.800015 156.599964,135.899984 163.8,139.1 C171.80004,142.700018 179.049967,146.449981 185.55,150.35 C192.050032,154.25002 197.549978,158.499977 202.05,163.1 C206.550023,167.700023 209.999988,172.899971 212.4,178.7 C214.800012,184.500029 216,191.299961 216,199.1 C216,208.300046 214.350016,216.549963 211.05,223.85 C207.749983,231.150037 203.200029,237.349975 197.4,242.45 C191.599971,247.550026 184.75004,251.449987 176.85,254.15 C168.949961,256.850014 160.500045,258.2 151.5,258.2 C142.499955,258.2 134.400036,256.950013 127.2,254.45 C119.999964,251.949988 113.600028,248.65002 108,244.55 C102.399972,240.44998 97.60002,235.750026 93.6,230.45 C89.59998,225.149973 86.400012,219.800027 84,214.4 L105,201.8 C106.800009,206.000021 109.149985,210.049981 112.05,213.95 C114.950014,217.85002 118.299981,221.299985 122.1,224.3 C125.900019,227.300015 130.249976,229.699991 135.15,231.5 C140.050025,233.300009 145.399971,234.2 151.2,234.2 C156.200025,234.2 161.049977,233.5 165.75,232.1 C170.450023,230.699993 174.599982,228.600014 178.2,225.8 C181.800018,222.999986 184.699989,219.550021 186.9,215.45 C189.100011,211.34998 190.2,206.500028 190.2,200.9 Z"/>
  </g>
</svg>
